X: 141
T:SECOUETTE
M:4/4
L:1/4
Q:1/4=120
Z:Yves BELOTTEAU
K:G
|G3/2A/2Bc BAGd|BdBd e3/2 z/2 d3/2 z/2 |G3/2A/2Bc BAGd|BdBd e3/2 z/2 d3/
2 z/2 |
dB/2c/2dB/2c/2 deA3/2 z/2 |cA/2B/2cA/2B/2 cdB3/2 z/2 |dB/2c/2dB/2c/2 deA
3/2 z/2 |cedc BAG3/2|
W:
W: From "Falaleiro" http://home.t-online.de/home/pheld/homepage.htm
